FINK
CUT[IN DER HEIMATH IST ES SCHOEN]
REG[Europa, Mitteleuropa, Deutschland]
KEY[F0463  16  G 3/4]
MEL[-3_.-4  -5__.-3_1_.-7  -6___
    -6_.-5  -4__.-3_-4_.-6  -5___
    -3_.-4  -5__.-3_1_.-5  -7_-6_-6__
    -6_1_  -7__.-5_(-4#_-5_-6_)  -6_-5_-5_.-4
    -3_.-4  -5__.-6_-7_1_  -6___
    1_.-6  -6__.-5_-7_.2  1___
    (1_-7_-6_)  -6_.-5-5__(-5_-7_2_)  1__0__ //] >>
FCT[Heimat - Lied]
